X:1
T:Title
%%score { ( 1 4 ) | ( 2 3 ) }
L:1/8
M:4/4
K:G
V:1 treble nm="Grand Piano"
V:4 treble 
V:2 bass 
V:3 bass 
V:1
 z4 z2[Q:1/4=100] [B,G][CA] | [DB][DB][B,D][CE] [B,G]2 [B,DG][DB] | [DA][DA][DG]A B2 Bc | %3
 dded BBAG |[M:3/4] z2 z2 A2[K:bass] |[M:1/4][K:treble] [DG][DA] | %6
[M:4/4] [DB][DB][B,D][CE] [B,G]2 [B,DG][DB] | [DA][DA][DG]A B2 Bc | dded BBAG | %9
[M:3/4] A4 [G,B,G]2 |[M:1/4] GG |[M:4/4] [Ec]4 [Ec]2 [EG][^DA] | B4 B2 Bc | dded BBAG | %14
[M:3/4] z2 z2 A2[K:bass] |[M:1/4][K:treble] [DG][DA] |[M:4/4] [DB][DB][B,D][CE] [B,G]2 [B,DG][DB] | %17
 [DA][DA][DG]A B2 Bc | dded BBAG |[M:7/4] A4 [B,G]2 z2 z2 z4 |] %20
V:2
 z4 z2 [G,,D,][G,,D,] | [G,,G,][G,,G,][G,,G,][G,,G,] [G,,D,]2 G,,[G,,G,] | z4 z2 [G,D]2 | %3
 [G,B,G][G,B,G][G,CG][G,B,G] [G,D][K:bass][G,D][F,A,D][E,A,^C] |[M:3/4] [D,G,D]4 .[D,F,D]2 | %5
[M:1/4] [B,,G,][A,,F,] |[M:4/4] [G,,G,][G,,G,][G,,G,][G,,G,] [G,,D,]2 G,,[G,,G,] | z4 z2 [G,D]2 | %8
 [G,B,G][G,B,G][G,CG][K:bass][G,B,D] [D,G,D][D,G,D][D,CD][D,B,D] |[M:3/4] [D,F,C]4 G,,2 | %10
[M:1/4] G,G, |[M:4/4] [C,G,]4 [C,G,]2 [C,G,][C,G,] | z4 z2 [G,D]2 | %13
 [G,B,G][G,B,G][G,CG][G,B,G] [G,D][K:bass][G,D][F,A,D][E,A,^C] |[M:3/4] [D,G,D]4 .[D,F,D]2 | %15
[M:1/4] [B,,G,][A,,F,] |[M:4/4] [G,,G,][G,,G,][G,,G,][G,,G,] [G,,D,]2 G,,[G,,G,] | z4 z2 [G,D]2 | %18
 [G,B,G][G,B,G][G,CG][K:bass][G,B,D] [D,G,D][D,G,D][D,CD][D,B,D] | %19
[M:7/4] [D,F,C]4 [G,,G,]2 z2 z2 z4 |] %20
V:3
 x8 | x8 | [D,F,][D,F,][B,,G,][D,F,D] [G,D]2 z A, | x5[K:bass] x3 |[M:3/4] x6 |[M:1/4] x2 | %6
[M:4/4] x8 | [D,F,][D,F,][B,,G,][D,F,D] [G,D]2 z A, | x3[K:bass] x5 |[M:3/4] x6 |[M:1/4] x2 | %11
[M:4/4] x8 | [G,D]4 [G,D]2 z A, | x5[K:bass] x3 |[M:3/4] x6 |[M:1/4] x2 |[M:4/4] x8 | %17
 [D,F,][D,F,][B,,G,][D,F,D] [G,D]2 z A, | x3[K:bass] x5 |[M:7/4] x14 |] %20
V:4
 x8 | x8 | x8 | x8 |[M:3/4] B4 z[K:bass] C, |[M:1/4][K:treble] x2 |[M:4/4] x8 | x8 | x8 | %9
[M:3/4] x6 |[M:1/4] x2 |[M:4/4] x8 | x8 | x8 |[M:3/4] B4 z[K:bass] C, |[M:1/4][K:treble] x2 | %16
[M:4/4] x8 | x8 | x8 |[M:7/4] x14 |] %20

